X:1
T:Ceylon, 76.76 D
T:Ceylon, 76.76 D
T:Samuel Reay, 1874
T:Public Domain Courtesy of the Cyber Hymnal™
C:Samuel Reay, 1874
Z:Public Domain
Z:Courtesy of the Cyber Hymnal™
%%score ( 1 2 ) ( 3 4 )
L:1/8
Q:1/4=110
M:4/4
K:D
V:1 treble 
V:2 treble 
V:3 bass 
V:4 bass 
V:1
 D2 | [DF]2 [CG]2 [DA]2 [Fd]2 | [Ec]4 [Dd]2 [DF]2 | [DA]2 [CF]2 D2 [EG]2 | [CE]6 [EA]2 | %5
 [EB]2 [Ec]2 [Fd]2 [Ee]2 | [Ec]4 [DB]2 [CA]2 | [Fd]2 [Ec]2 B2 [DB]2 | [CA]6 [EA]2 | %9
 [CG]2 [DF]2 [DB]2 [^DA]2 | [EG]4 [CF]2 [CE]2 | [DA]2 [CG]2 [DF]2 [DG]2 | [CE]6 D2 | %13
 [DF]2 [CG]2 [DA]2 [Ed]2 | [Ec]4 [Dd]2 [GB]2 | [EA]2 [DF]2 [DE]2 [CE]2 x | D6 |] %17
V:2
 D2 | x8 | x8 | x4 D2 x2 | x8 | x8 | x8 | x4 (DC) x2 | x8 | x8 | x8 | x8 | x6 D2 | x8 | x8 | x9 | %16
 D6 |] %17
V:3
 [D,F,]2 | [D,A,]2 [E,A,]2 [F,A,]2 [D,A,]2 | A,4 [F,A,]2 [D,A,]2 | %3
 [F,,A,]2 [A,,A,]2 [B,,F,]2 [G,,B,]2 | [A,,A,]6 [A,C]2 | [^G,B,]2 A,2 [F,A,]2 [G,B,]2 | %6
 A,4 [E,^G,]2 [F,A,]2 | [D,A,]2 [A,,A,]2 [E,A,]2 [E,^G,]2 | [A,,A,]6 [C,A,]2 | %9
 [E,A,]2 [D,A,]2 G,2 [F,A,]2 | [E,B,]4 A,2 [G,A,]2 | [F,A,]2 [E,A,]2 [D,A,]2 [G,,B,]2 | %12
 [A,,A,]6 [D,F,]2 | [D,A,]2 [E,A,]2 [F,A,]2 [^G,B,]2 | A,4 [F,A,]2 [G,D]2 | %15
 [C,A,]2 [D,A,]2 A,3 z G, | [D,F,]6 |] %17
V:4
 x2 | x8 | A,2 G,2 x4 | x8 | x8 | x2 A,2 x4 | A,4 x4 | x8 | x8 | x4 G,2 x2 | x4 A,2 x2 | x8 | x8 | %13
 x8 | A,2 G,2 x4 | x4 A,,2 A,,2 x | x6 |] %17

